X:139
T:Polonäs
T:ur Kumlins notsamling (nr 139)
B:Kumlins notsamling, nr 139
B:FMK - katalog Ma4 bild 33
O:Närke
R:Slängpolska
Z:Nils Liberg
M:3/4
L:1/16
K:D
d2d2 efge fgag | f2ed cded c2BA | d2d2 efge fgag | fedc d4 D4 ::
fafd fafd f2a2 | egec egec e2g2 | fafd fafd f2a2 | egec egec e2g2 |
d2d2 efge fgag | fedc d4 D4 :|

